public/assets/img/box.svg

<?xml version="1.0" encoding="UTF-8" standalone="no"?>
<svg width="256px" height="256px" viewBox="0 0 256 256" version="1.1" xmlns="http://www.w3.org/2000/svg" xmlns:xlink="http://www.w3.org/1999/xlink" preserveAspectRatio="xMidYMid">
	<g>
		<path d="M213.564,256 L42.436,256 C18.999,256 0,237.001 0,213.564 L0,42.436 C0,18.999 18.999,0 42.436,0 L213.564,0 C237.001,0 256,18.999 256,42.436 L256,213.564 C256,237.001 237.001,256 213.564,256" fill="#00AEEF"></path>
		<path d="M131.02,107.786 C117.701,107.786 106.111,115.278 100.274,126.277 C94.435,115.278 82.851,107.786 69.523,107.786 C61.697,107.786 54.467,110.375 48.633,114.747 L48.633,85.424 C48.564,81.635 45.474,78.602 41.672,78.602 C37.87,78.602 34.81,81.635 34.723,85.424 L34.723,143.166 L34.73,143.166 C35.037,162.125 50.487,177.398 69.523,177.398 C82.851,177.398 94.435,169.899 100.274,158.911 C106.111,169.899 117.701,177.398 131.02,177.398 C150.236,177.398 165.824,161.816 165.824,142.585 C165.824,123.364 150.236,107.786 131.02,107.786 M69.523,163.463 C57.992,163.463 48.633,154.122 48.633,142.59 C48.633,131.062 57.992,121.72 69.523,121.72 C81.053,121.72 90.392,131.062 90.392,142.585 C90.392,154.119 81.053,163.463 69.523,163.463 M131.02,163.463 C119.486,163.463 110.134,154.119 110.134,142.585 C110.134,131.062 119.486,121.72 131.02,121.72 C142.549,121.72 151.896,131.062 151.896,142.585 C151.896,154.119 142.549,163.463 131.02,163.463" fill="#FFFFFF"></path>
		<path d="M219.83,165.745 L200.912,142.54 L219.853,119.29 C222.248,116.223 221.561,111.94 218.255,109.665 C214.945,107.37 210.301,107.958 207.74,110.934 L207.74,110.93 L191.444,130.902 L175.163,110.93 L175.163,110.934 C172.628,107.958 167.955,107.37 164.655,109.665 C161.355,111.942 160.665,116.223 163.072,119.29 L163.065,119.29 L181.973,142.54 L163.065,165.745 L163.072,165.745 C160.665,168.822 161.355,173.091 164.655,175.376 C167.955,177.661 172.628,177.079 175.163,174.099 L191.444,154.155 L207.717,174.099 C210.281,177.079 214.923,177.661 218.233,175.376 C221.54,173.091 222.23,168.822 219.83,165.745" fill="#FFFFFF"></path>
	</g>
</svg>

<svg xmlns="http://www.w3.org/2000/svg" width="256" height="256" preserveAspectRatio="xMidYMid"><path fill="#00AEEF" d="M213.56 256H42.44C19 256 0 237 0 213.56V42.44C0 19 19 0 42.44 0h171.12C237 0 256 19 256 42.44v171.12C256 237 237 256 213.56 256"/><path fill="#fff" d="M131.02 107.8c-13.32 0-24.9 7.48-30.75 18.48-5.83-11-17.42-18.5-30.75-18.5-7.82 0-15.05 2.6-20.9 6.97V85.42c-.06-3.78-3.15-6.82-6.95-6.82-3.8 0-6.86 3.04-6.95 6.82v57.75c.32 18.96 15.77 34.23 34.8 34.23 13.33 0 24.92-7.5 30.75-18.5 5.84 11 17.43 18.5 30.75 18.5 19.22 0 34.8-15.58 34.8-34.81 0-19.24-15.58-34.8-34.8-34.8m-61.5 55.66c-11.53 0-20.9-9.34-20.9-20.87 0-11.54 9.37-20.88 20.9-20.88s20.87 9.34 20.87 20.87c0 11.52-9.35 20.86-20.88 20.86m61.5 0c-11.53 0-20.9-9.34-20.9-20.88 0-11.52 9.37-20.86 20.9-20.86s20.88 9.34 20.88 20.87c0 11.52-9.35 20.86-20.88 20.86M219.83 165.75l-18.92-23.2 18.95-23.26c2.4-3.08 1.7-7.36-1.6-9.63-3.3-2.3-7.95-1.7-10.5 1.26l-16.3 19.97-16.3-19.97c-2.52-2.97-7.2-3.56-10.5-1.27-3.3 2.28-4 6.56-1.58 9.63l18.9 23.24-18.9 23.2c-2.4 3.08-1.72 7.35 1.6 9.64 3.3 2.28 7.96 1.7 10.5-1.28l16.27-19.94 16.28 19.94c2.56 2.98 7.2 3.56 10.5 1.28 3.32-2.3 4-6.56 1.6-9.63"/></svg>
